X:1
T:James Gibb editions
T:Exultabunt sancti - Foggia
T:#
%%score [ 1 2 3 4 ]
L:1/8
Q:1/4=96
M:4/4
K:A
V:1 treble nm="Soprano" snm="S"
V:2 treble nm="Alto" snm="A"
V:3 treble-8 nm="Tenor" snm="T"
V:4 bass nm="Bass" snm="B"
V:1
"^Francesco Foggia\n(1603-88)"!mf!"^allegro moderato""^Psalm 149:5-6a" B4 B2 !>!e2- | %1
w: Ex- ul- ta\-|
 e2 c2 ^d2"^Exultabunt sancti" (e2- | e2 ^d2)"^," e2 B2 | G2 !>!c4 B2 | A2 AF (!>!GABG | %5
w: * bunt san\- *|* * cti, ex-|ul- ta- bunt|san- cti in glo\- * * *|
[M:4/4] A3 A"^," E3 e | (!>!ABcA B2 c2 | B3) B"^," c4 | c4 c2 !>!f2- | f2 e2 B4 | c4)"^," F4 | %11
w: * ri- a, in|glo\- * * * * *|* ri- a,|ex- ul- ta\-|* bunt san\-|* cti|
 E2 (!>!FGAF G2 | A6) A2 | A4 z2 z A | (!>!BcdB cBAG | F2) E2"^," F2"^cresc." F2 | (!>!GABG A4 | %17
w: in glo\- * * * *|* ri-|a, in|glo\- * * * * * * *|* ri- a, in|glo\- * * * *|
 F4 E4- | E2) E2"^," E2!mp! e2- | e2 c2 d2 B2 | c3 B A2 B2 |"^," G4 A2 B2 | c3 c B4 | %23
w: |* ri- a, lae\-|* ta- bun- tur|in cu- bi- li-|bus, in cu-|bi- li- bus|
 B4"^," B2 B2- | B2 G2 A3 A | FF B4 AA | G4 F4 | z4 z2 e2- | e2 d2 c2 B2 |"^," A4 d2 c2 | %30
w: su- is, lae\-|* ta- bun- tur|in cu- bi- li- bus|su- is,|in|* cu- bi- li-|bus, in cu-|
 B2 A2 G2!>(! (A2- | A2 G2)!>)! A4 | z8 | z4 A4- |!<(! A2 B2 c2!<)! d2 | !>!e6 d2- | %36
w: bi- li- bus su\-|* * is,||ex\-|* ul- ta- ti-|o- nes|
"^," d2 (c4 B2- | B2 AG A4 | G4) A2 c2 |"^cresc."[Q:1/4=102] (d4 c3) c | BE (e4 ^d2) | %41
w: * De\- *||* i in|fau\- * ci-|bus e- o\- *|
"^," e2 c2 (FGAB |[Q:1/4=102][Q:1/4=102][Q:1/4=102][Q:1/4=102] c!courtesy!=dec d>)d dd | %43
w: rum, in fau\- * * *|* * * * * ci- bus e-|
 c4"^," B4 | c4 (e4 | d3) d"^," c4 | B2 (!>!FG ABcA | B3 B A4 | c2 (!>!B4 ^A2) | %49
w: o- rum,|in fau\-|* ci- bus,|in fau\- * * * * *|* ci- bus|e- o\- *|
 B2 z B FG!courtesy!=AB | cdec d3) d |"^," c2 c2 B4- |"^rit."[Q:1/4=96]!>(! B4!>)! B4 || %53
w: rum, in fau\- * * *|* * * * * ci-|bus e- o\-|* rum.|
"^più allegro""^At Easter"[Q:1/4=120] z8 | z2!f! e2 c2 f2 | B4 z4 | (B3 G/B/ c4) | B2 ^A2"^," B4 | %58
w: |Al- le- lu-|ja,|al\- * * *|le- lu- ja,|
 B4 c4 |[Q:1/4=120][Q:1/4=120][Q:1/4=120][Q:1/4=120] d4 e4 | z2 A2 F2 B2 |"^," E2 A2 G3 G | %62
w: al- le-|lu- ja,|al- le- lu-|ja, al- le- lu-|
"^," F4 c2 A2 | d2 c2 z2 A2 | F2 A2"^," E4 | F2 G4 A2 |"^," B4 B2 c2- | c2 d2"^," e2 B2 | c4 d4 | %69
w: ja, al- le-|lu- ja, al-|le- lu- ja,|al- le- lu-|ja, al- le\-|* lu- ja, al-|le- lu-|
"^," e2!ff! (!>!e3 d/c/ d2- |[Q:1/4=118] d2"^rit."[Q:1/4=115] c2)[Q:1/4=110] B4- | %71
w: ja, al\- * * *|* le- lu\-|
[Q:1/4=104] B4[Q:1/4=102] !fermata!B4 |] %72
w: * ja.|
V:2
 z4!mf! E4 | E2 !>!A4 G2 | (F3 E/F/ G3 A | B2 AG F2 G2 | A2 A,2) B,4 |[M:4/4] z4 z2 E2 | %6
w: Ex-|ul- ta- bunt|san\- * * * *||* * cti|in|
 (!>!FGAF G2 A2- | A2) G2"^," A2 E2 | E2 !>!A4 F2 | (G2 A4 G2) |"^," A2 A2 (!>!DEFD | A6 B2 | %12
w: glo\- * * * * *|* ri- a, ex-|ul- ta- bunt|san\- * *|cti in glo\- * * *|* ri-|
"^," E2 F2 E3 E | F2 z D (!>!FGAF | GF/E/ FG AGFE | ^D2 E4) D2 | E8 | z2"^cresc." B4 !>!A2 | %18
w: a, in glo- ri-|a, in glo\- * * *||* * ri-|a,|in glo\-|
 A2 G2"^," A4 |!mp! A4 F2 !>!G2 | E4 z2 z B- | BAGF"^," E2 G2 | A2 !>!A3 A G2 | F4"^," G4 | %24
w: * ri- a,|lae- ta- bun-|tur in|* cu- bi- li- bus, in|cu- bi- li- bus|su- is,|
 G4 E2 !>!F2- | FFGG ^E>E F2- | F2 ^E2 F4- | F2 B4 G2 | A4"^," E4 | F2 G2 A2 G2 | F4 E4- | %31
w: lae- ta- bun\-|* tur in cu- bi- li- bus|* su- is,|* lae- ta|bun- tur|in cu- bi- li-|bus su\-|
!>(! E8!>)! | F4 z4 | z2!<(! E4 E2!<)! | F2 G2 !>!A4- | A2"^," G2 F2 G2 | A6 GF | ^EF G4 F2- | %38
w: |is,|ex- ul-|ta- ti- o\-|* nes De\- *|||
 F2 ^E2)"^," F2 F2 |"^cresc." (B,CD!courtesy!=E FGAF | G)GGG F2"^," F2 | G2 !>!A3 G F2 | E4 F4 | %43
w: * * i in|fau\- * * * * * * *|* ci- bus e- o- rum,|in fau- ci- bus|e- o-|
"^," F4 F4 | (A4 G3) G | FB, (B4 ^A2) | B4 z2 F2 | (B,CDE F=GAF | =G>)G GG F4- | F8 | E4 z2 F2 | %51
w: rum, in|fau\- * ci-|hus e- o~\- *|rum, in|fau\- * * * * * * *|* ci- bus e- o\-||rum, in|
 A2 A2 A2 G2 |"^rit."!>(! F4!>)! G4 || z2!f! E2 C2 F2 | B,4 z4 | z2 E2 C2 F2 |"^," B,2 (B4 AG) | %57
w: fau- ci- bus e-|o- rum.|Al- le- lu-|ja,|al- le- lu-|ja, al\- * *|
 (F2 E2) F4 | G4 z2 A2 | F3 B E4 | z4 D2 B,B |"^," G2 F3 F ^E2 |"^," F4 G3 F | %63
w: le\- * lu-|ja, al-|le- lu- ja,|al- le- lu-|ja, al- le- lu-|ja, al- le-|
 (G4 F3 !courtesy!=E) | ^D4 z2 A2 | F2 B2"^," G2 E2 | F4 G4 | A4 z2 G2 | E2 A2"^," F2 B2 | %69
w: lu\- * *|ja, al-|le- lu- ja, al-|le- lu-|ja, al-|le- lu- ja, al-|
 G2 A4 F!ff!B | (G2"^rit." A4 G2) | F4 !fermata!G4 |] %72
w: le- lu- ja, al-|le\- * *|lu- ja.|
V:3
 z8 | z8 |!mf! B4 B2 !>!e2- | e2 c2 (^d2 e2- | e2 ^d2)"^," e2 e2 | %5
w: ||Ex- ul- ta\-|* bunt san\- *|* * cti in|
[M:4/4][K:treble-8] (!>!ABcA B2 c2 | A4 e4- | e2) e2"^," e4 | A4 A2 !>!d2- | d2 c2 (d2 e2) | %10
w: glo\- * * * * *||* ri- a,|ex- ul- ta\-|* bunt san\- *|
 A4 z4 | A2 (!>!DEFD d2 | c2 d4) c2 |"^," d2 A4 d2 | B4 A4 | (B2 cB A2) B2 | %16
w: cti|in glo\- * * * *|* * ri-|a, ex- ul-|ta- bunt|san\- * * * cti|
 z2"^cresc." B2 (!>!cdec | d6 c2 | B3) B c4 | z4 z2!mp! e2- | e2 c2 d2"^," B2 | e3 d c2 B2 | %22
w: in glo\- * * *||* ri- a,|lae-|* ta- bun- tur|in cu- bì- li-|
 A4 B4- | B4 E4 | e4 c2 !>!d2- | ddBB c>c F2 | C4"^," F2 f2 | ^d4 !>!e2 B2 | c2 B2 A2 B2 | %29
w: bus su\-|* is,|lae- ta- bun\-|* tur in cu- bi- li- bus|su- is, lae-|ta- bun- tur|in cu- bi- li-|
"^," c4 f2 e2 | d2 c2!>(! (B2 c2)!>)! | B4"^," c2 A2- |!<(! A2 A2 B2 c2!<)! | (!>!d4 c3 B | %34
w: bus, in cu-|bi- li- bus *|su- is, ex\-|* ul- ta- ti-|o\- * *|
 A2 G2 F4) |"^," B2 B3 cdB | (e2 A2 B4 | c6) c2 | c4 c4 | z8 | z8 | z4 z2 F2 | !>!A2 G2 B2 B,2 | %43
w: |nes, ex- ul- ta- ti-|o\- * *|* nes|De- i|||in|fau- ci- bus e-|
 F4"^," B,2 B2 | (FGAB cdec | d>)d B2 z2 c2 | (d4 c3) c | Be (Bc d>)d c2 | e4 c4 | B4 z B (FG | %50
w: o- rum, in|fau\- * * * * * * *|* ci- bus, in|fau\- * ci-|bus, in fau\- * * ci- bus|e- o-|rum, in fau\- *|
 ABcA Bcde | f2 e2 ^d2 d(e- |!>(! e2"^rit." ^d2)!>)! e4 || z8 |!f! E4 F4 | G4 A4 | z2 e2 c2 fc) | %57
w: |* ci- bus e- o\-|* * rum.||Al- le-|lu- ja,|al- le\- * *|
 (^d2 e4 d2) |"^," e2 e2 c2 f2 | B4 z2 e2 | c2 f2"^," B4 | c2 F2 c4 |"^," F2 f2 ^e2 (f2- | %63
w: lu\- * *|ja, al- le- lu-|ja, al-|le- lu- ja,|al- le- lu-|ja, al- le- lu\-|
 f2 ^e2) f4 | B4 c4 | ^d4 e4 | z2 B2 G2 c2 |"^," F2 F2 G4 | (A>G F2) B,4 | z2 A2 F2 B2 | %70
w: * * ja,|al- le-|lu- ja,|al- le- lu-|ja, al- le-|lu\- * * ja,|al- le- lu-|
"^," E2!ff! e2"^rit." ^d2 (e2- | e2 ^d2) !fermata!e4 |] %72
w: ja, al- le- lu\-|* * ja.|
V:4
 z8 | z8 | z4!mf! E,4 | E,2 !>!A,4 G,2 | F,4 E,2 E,2 |[M:4/4] (!>!F,G,A,F, G,2 A,2 | F,4 E,4- | %7
w: ||Ex-|ul- ta- bunt|san- cti in|glo\- * * * * *||
 E,2) E,2 A,,4 | z8 | z8 | z2 A,2 (!>!B,CDB, | C2 D4 B,2 | A,6) A,2 | D,8 | z8 | %15
w: * ri- a,|||in glo\- * * *||* ri-|a,||
 z4 z2"^cresc." B,2 | (!>!E,F,G,E, A,B,CA, | DCB,A, G,2 A,2 | E,3) E, A,,4 | z8 | %20
w: in|glo\- * * * * * * *||* ri- a,||
!mp! A,4 F,2 !>!G,2 |"^," E,2 E4 D2 | C3 C"^," ^D2 (E2- | E2 ^D2) E4 | z8 | z8 | z2 C4 ^A,2 | %27
w: lae- ta- bun-|tur in cu-|bi- li- bus su\-|* * is,|||lae- ta-|
 !>!B,4"^," E,4 | =A,6 G,2 | F,2 E,2 D,4- | D,4!>(! E,4- | E,4!>)! A,,4 | D,6!<(! E,2 | %33
w: bun- tur|in cu-|bì- li- bus|* su\-|* is,|ex- ul-|
 F,2 G,2!<)! (A,3 G, | F,2 E,2 A,2 F,2 | E,4 B,4) |"^," A,4 (D,4 | C,8- | C,4) F,4 | z8 | z8 | %41
w: ta- ti o\- *|||nes De\-||* i|||
 C,4 (!>!D,4 | C,3 C, B,,B,, (B,2- | B,2 ^A,2) B,4 | z8 | z4 F,4 | B,,C,D,E, F,G,A,F, | %47
w: in fau\-|* ci- bus e- o~\-|* * rum,||in|fau\- * * * * * * *|
 =G,3 G, F,4 | E,4 F,4 |"^," B,,2 F,2 (B,4 | A,3) C B,4 | A,4 !>!B,4- |"^rit."!>(! B,4!>)! E,4 || %53
w: * ci- bus|e\-- o-|rum, in fau\-|* ci- bus|e o\-|* rum.|
!f! E,4 F,4 | G,4"^," A,4 | E,4 F,4 | G,4 A,4 | B,2 C2 B,4) | E,4 z4 | z2 B,2 G,2 C2 | F,4 z4 | %61
w: Al- le-|lu- ja,|al- le-|lu\- *||ja,|al- le- lu-|ja,|
 z4 z2 C2 | F,2 D2 C2"^," D2 | B,2 C2 F,4 | z8 | B,4 C4 | ^D4 E4 | z2 =D2 B,2 E2 |"^," C2 A,2 B,4 | %69
w: al-|le- lu- ja, al-|le- lu- ja,||al- le-|lu- ja,|al- le- lu-|ja, al- le-|
 C4"^," D4 | E2!ff! A,2"^rit." B,4- | B,4 !fermata!E,4 |] %72
w: lu- ja,|al- le- lu\-|* ja.|

